X: 280
T:Seven Stars
% Nottingham Music Database
S:Thomas Hardy Collection via Yetties, via Phil Rowe
M:6/8
K:D
"D"d2A A2F|"G"GAB "D"A3|"G"Bcd "A"efg|"D"fed "A"cBA|
"D"d2A A2F|"G"GAB "D"A3|"G"Bcd "Em"efg| [1"A"Adc "D"d3:|[2"A"Adc "D"d2||
|:f|"A"e2A A2f|"A"efg "D"f3|"A"efg "D"fed|"A"cec A3|
"G"BGB "D"AFA|"G"BGB "D"AFA|"G"Bcd "Em"efg|"A7"Adc "D"d2:|


